X: 36929
T: Shores Of Lough Breda, The
R: reel
M: 4/4
K: Dmajor
AG|:F3A GEFG|Ad d2 cAGE|Ad d2 cded|cAAG EFGE|
F3A GEFG|Ad d2 cAGE|F/G/A dB cded|1 cAGE FAGE:|2 cAGE DEFG||
|:Ad d2 cded|cAAG EAGE|ADFA dAFA|GEAF DEFA|
c3e dBed|cAAG EAGE|ADFA dAFA|GEAF D3d|
cdec dBed|cAAG EAGE|ADFA dAFA|GEAF DEFA|
c3e dBed|cAAG EAGE|ADFA dAFA|GEAF D3G||

